assets/images/members/garantir/garantir.svg

<svg xmlns="http://www.w3.org/2000/svg" baseProfile="tiny-ps" viewBox="0 0 675 238"><title>Garantir</title><style>.shp0{fill:#35803e}</style><path id="G1" d="M257.46 169.15v-21.78c0-2.87-1.18-4.83-5-4.83h-27.61c-5.48 0-6.13 8.61 0 8.61h23.48v17.35c-5.74 7.7-15.78 11.87-25.44 11.74-16.82-.39-31.69-15.78-31.95-34.17 0-17.09 12.52-29.74 26.87-33.13 9.78-2.48 21.91.52 29.21 9 4 4.69 10.7-1.57 6.79-6.13-7.18-8.35-19.31-12.26-30.66-12.26-.57 0-1.13 0-1.7.02-.56.01-1.13.04-1.7.07a48 48 0 0 0-3.38.3c-20 3.78-34.82 21.91-34.82 41.74-.53 24.65 18.78 43.32 41.21 43.45 12.65.13 25.57-5.5 33.26-15.67a5.9 5.9 0 0 0 1.14-2.01c.13-.37.21-.75.26-1.14.05-.38.07-.77.04-1.16" class="shp0"/><path id="a2" d="M305.65 189.49h1.37c7.7 0 17.35-4.32 21.13-11.87v6.24c-.06.63.02 1.27.24 1.87.21.6.56 1.14 1.01 1.59.44.45.99.8 1.58 1.01.6.22 1.24.31 1.87.25.64.05 1.28-.04 1.87-.26a4.53 4.53 0 0 0 2.65-2.59c.23-.6.33-1.23.3-1.87v-57.75c.02-.63-.09-1.26-.32-1.85-.24-.59-.6-1.12-1.05-1.57-.45-.44-1-.78-1.59-1s-1.23-.32-1.86-.28c-.63-.05-1.26.04-1.85.26s-1.13.57-1.58 1.01c-.44.45-.79.99-1.01 1.58s-.31 1.22-.26 1.85v5c-4.69-7.7-13.17-10-20.61-10.18h-1.89v9.05c.59 0 1.18-.05 1.76 0 11.74.52 20.74 7.15 20.74 20.05v10.28c-.65 13-10 20.3-22 20.3h-.46zm-11.93-66.25c-12.52 4.83-19.83 16.94-20.09 30.07v2.38c.27 11.76 5.32 21.89 14.62 28.23 1.28.87 2.62 1.64 4.01 2.32 1.39.67 2.82 1.25 4.29 1.73 1.48.47 2.98.84 4.5 1.1 1.53.26 3.07.41 4.61.45v-9c-1.17-.1-2.33-.27-3.48-.53-1.14-.26-2.27-.6-3.37-1.01-1.09-.42-2.16-.91-3.19-1.47a25 25 0 0 1-2.96-1.9c-7-5.85-9.78-13.66-9.52-22.13.02-.82.09-1.65.18-2.46.1-.82.23-1.64.4-2.44.17-.81.37-1.61.61-2.4.23-.79.5-1.56.81-2.33 3.42-8.54 11.88-13.41 20.54-13.88v-9.05c-1.03 0-2.07.05-3.1.15-1.02.11-2.05.26-3.06.47q-1.515.315-3 .78c-.98.32-1.95.68-2.9 1.09z" class="shp0"/><path id="r3" d="M366.89 125.85c0-6.26-9.26-5.74-9.26 0v57.78a4.537 4.537 0 0 0 1.39 3.37c.46.43 1 .77 1.59.98s1.22.29 1.85.24c.61.01 1.22-.09 1.79-.32.57-.22 1.09-.56 1.52-.99a4.3 4.3 0 0 0 1.02-1.5c.24-.56.36-1.17.36-1.78v-29.48c0-13.17 5.74-23.87 19.17-23.87 3 0 5-1.56 5-4.43s-2-4.57-5-4.57c-7.43 0-15.26 2.35-19.43 11.09z" class="shp0"/><path id="a4" d="M430 189.49h1.37c7.7 0 17.35-4.32 21.13-11.87v6.24c-.06.63.02 1.27.24 1.87.21.6.56 1.14 1.01 1.59.44.45.99.8 1.58 1.01.6.22 1.24.31 1.87.25.64.05 1.28-.04 1.88-.26a4.7 4.7 0 0 0 1.6-1.01c.45-.45.81-.99 1.04-1.58.24-.6.34-1.23.31-1.87v-57.75c.02-.63-.09-1.27-.33-1.85a4.6 4.6 0 0 0-1.05-1.57 4.5 4.5 0 0 0-1.59-1c-.59-.22-1.23-.32-1.86-.28-.63-.05-1.26.04-1.85.26s-1.13.57-1.58 1.01c-.44.45-.79.99-1.01 1.58s-.31 1.22-.26 1.85v5c-4.69-7.7-13.17-10-20.6-10.18H430v9.05c.59 0 1.18-.05 1.77 0 11.73.52 20.73 7.15 20.73 20.05v10.28c-.65 13-10 20.3-22 20.3h-.46zm-12-66.25c-12.52 4.83-19.83 16.94-20.09 30.07v2.39c.28 11.74 5.33 21.86 14.62 28.19 1.28.87 2.62 1.64 4.01 2.32 1.39.67 2.82 1.25 4.29 1.73 1.48.47 2.98.84 4.5 1.1 1.53.26 3.07.41 4.61.45v-9a25.073 25.073 0 0 1-6.85-1.54c-1.09-.41-2.16-.91-3.19-1.47a25 25 0 0 1-2.96-1.9c-7.05-5.85-9.79-13.66-9.53-22.13.03-.82.09-1.65.18-2.46.1-.82.23-1.64.4-2.44.17-.81.37-1.61.61-2.4.23-.79.51-1.56.81-2.33 3.42-8.54 11.88-13.41 20.54-13.88v-9.05c-1.03 0-2.07.05-3.1.15-1.02.11-2.05.26-3.06.47q-1.515.315-3 .78c-.98.32-1.95.68-2.9 1.09z" class="shp0"/><path id="n5" d="M536.71 184.15c0 2.87 2 4.59 4.83 4.59s4.69-1.72 4.69-4.59v-34.56c0-18.78-14.47-29.22-29.6-29.22-10.18 0-20.22 4-24.92 13.57v-8.09c0-6.26-9.39-6.13-9.39-.13v58.43c0 2.87 2 4.59 5 4.59S492 187 492 184.15v-30.26c.02-3.22.66-6.41 1.9-9.39 1.23-2.97 3.04-5.68 5.31-7.96 2.28-2.29 4.97-4.11 7.94-5.36s6.16-1.91 9.38-1.94c2.67-.01 5.31.52 7.77 1.54 2.47 1.02 4.7 2.52 6.58 4.42 1.88 1.89 3.37 4.14 4.37 6.61 1.01 2.47 1.51 5.11 1.49 7.78z" class="shp0"/><path id="t6" d="M579.62 121.55v-15.13c0-6.14-9.39-6.27-9.39 0v15.13h-8.6c-5.77 0-6.16 8.21 0 8.21h8.6V165c0 12.39 3.79 23.89 19.44 23.89.86.04 1.73.03 2.59-.05.86-.07 1.72-.2 2.56-.39.85-.19 1.68-.44 2.49-.74s1.6-.65 2.36-1.06c5.87-3.26 1.57-11-3.91-7.83-.48.23-.97.43-1.46.61-.5.18-1.01.32-1.53.45q-.765.18-1.56.27c-.52.07-1.05.1-1.58.11-8.87 0-10-7.83-10-15.26v-35.24h14.22a4.117 4.117 0 0 0 4.47-4.11 4.11 4.11 0 0 0-4.47-4.1z" class="shp0"/><path id="i7" d="M614.32 184.54c0 5.63 9.52 5.76 9.52 0v-58.82c0-5.61-9.52-5.48-9.52.13zm9.68-78.65c0-6-9.78-6-9.78 0v5.87c0 6 9.78 5.87 9.78 0z" class="shp0"/><path id="r8" d="M650.58 125.85c0-6.26-9.26-5.74-9.26 0v57.78a4.537 4.537 0 0 0 1.39 3.37c.46.43 1 .77 1.59.98s1.22.29 1.85.24c.61.01 1.22-.09 1.79-.32.57-.22 1.09-.56 1.52-.99a4.3 4.3 0 0 0 1.02-1.5c.24-.56.36-1.17.36-1.78v-29.48c0-13.17 5.74-23.87 19.17-23.87 3 0 5-1.56 5-4.43s-2-4.57-5-4.57c-7.43 0-15.26 2.35-19.43 11.09z" class="shp0"/><path id="Circle" fill-rule="evenodd" d="M50.67 163.62a29.72 29.72 0 0 1 8.69 20.99c0 7.87-3.13 15.42-8.69 20.99a29.72 29.72 0 0 1-20.99 8.69v-4.36c6.72 0 13.16-2.67 17.9-7.42a25.29 25.29 0 0 0 7.42-17.9c0-6.72-2.67-13.16-7.42-17.9a25.29 25.29 0 0 0-17.9-7.42v-4.36c7.87 0 15.42 3.13 20.99 8.69m-41.98 0A29.72 29.72 0 0 0 0 184.61c0 7.87 3.13 15.42 8.69 20.99a29.72 29.72 0 0 0 20.99 8.69v-4.36c-6.72 0-13.16-2.67-17.9-7.42a25.29 25.29 0 0 1-7.42-17.9c0-6.72 2.67-13.16 7.42-17.9a25.29 25.29 0 0 1 17.9-7.42v-4.36a29.72 29.72 0 0 0-20.99 8.69" class="shp0"/><path id="Lock bottom" fill-rule="evenodd" d="M86.27 144.87c15.47-.41 49-.8 63.36-1.17l4.92-.13v58c0 11.76-7.8 22.35-17.52 23.59l-45.63 5.78-51.12 6.5c-12.57 1.59-23.07-8.35-23.07-22.16v-3.74a29.6 29.6 0 0 0 11.42 2.74 29.7 29.7 0 0 0 11.58-1.9v.62l.11.11L91.38 208l45.62-4.58c.01-.01.02-.01.03-.02s.02-.02.02-.03c.01-.01.02-.02.02-.03 0-.02.01-.03.01-.04v-36.83l-50.63 2.74c.01-8.14-.05-16.25-.18-24.34" style="fill:#343434"/><path id="Lock top" fill-rule="evenodd" d="m89.76.24 1.64.2C117.67 4.23 138 31.39 138 60.93v15.28c9.28 1.14 16.59 11 16.59 22.32v32.68c-1.45-.08-2.91-.13-4.37-.16-1.45-.03-2.91-.03-4.37 0-1.45.02-2.91.07-4.36.15-1.46.08-2.91.18-4.36.31V98c0-.01-.01-.02-.01-.03s-.01-.02-.01-.03c-.01-.01-.01-.02-.02-.03-.01 0-.01-.01-.02-.02l-45.69-1.44h-1.62v-23l1.62.1L127 75.54V60.08c0-22.57-15.61-43-35.54-45.6-.55-.07-1.09-.12-1.64-.16zM17.17 157.68c.01-.01.03-.01.04-.02v.02zm.04-.02c1.78-.82 3.63-1.46 5.53-1.92 1.92-.46 3.88-.73 5.85-.8a29.7 29.7 0 0 1 11.58 1.9V94.97c0-.01.01-.03.02-.04s.01-.02.02-.03l.03-.03c.02-.01.03-.01.04-.02l49.48 1.52v-23l-37.2-2.17V54.32c0-24 16.98-41.57 37.2-40V.28c-27.29-2.94-50.67 20.47-50.67 53v17.16c-12.01-.01-21.88 10.45-21.88 23.81z" class="shp0"/><path id="Tick" fill-rule="evenodd" d="M12.13 177.76c4.14 7.71 6.08 11.24 10.24 18.93 10.32-12.57 26.5-23 29.79-26.14 0 0-26.63 14.61-29.7 16-4.46-3.5-5.56-5.03-10.33-8.79" class="shp0"/></svg>

<svg version="1.2" baseProfile="tiny-ps" xmlns="http://www.w3.org/2000/svg" viewBox="0 0 675 238">
	<title>Garantir</title>
	<style>
		tspan { white-space:pre }
		.shp0 { fill: #35803e } 
		.shp1 { fill: #343434 } 
	</style>
	<path id="G1" class="shp0" d="M257.46 169.15L257.46 147.37C257.46 144.5 256.28 142.54 252.46 142.54L224.85 142.54C219.37 142.54 218.72 151.15 224.85 151.15L248.33 151.15L248.33 168.5C242.59 176.2 232.55 180.37 222.89 180.24C206.07 179.85 191.2 164.46 190.94 146.07C190.94 128.98 203.46 116.33 217.81 112.94C227.59 110.46 239.72 113.46 247.02 121.94C251.02 126.63 257.72 120.37 253.81 115.81C246.63 107.46 234.5 103.55 223.15 103.55C222.58 103.55 222.02 103.55 221.45 103.57C220.89 103.58 220.32 103.61 219.75 103.64C219.19 103.67 218.62 103.71 218.06 103.76C217.5 103.81 216.93 103.87 216.37 103.94C196.37 107.72 181.55 125.85 181.55 145.68C181.02 170.33 200.33 189 222.76 189.13C235.41 189.26 248.33 183.63 256.02 173.46C256.27 173.17 256.5 172.85 256.69 172.51C256.88 172.17 257.04 171.82 257.16 171.45C257.29 171.08 257.37 170.7 257.42 170.31C257.47 169.93 257.49 169.54 257.46 169.15Z" />
	<path id="a2" class="shp0" d="M305.65 189.49L307.02 189.49C314.72 189.49 324.37 185.17 328.15 177.62L328.15 183.86C328.09 184.49 328.17 185.13 328.39 185.73C328.6 186.33 328.95 186.87 329.4 187.32C329.84 187.77 330.39 188.12 330.98 188.33C331.58 188.55 332.22 188.64 332.85 188.58C333.49 188.63 334.13 188.54 334.72 188.32C335.32 188.1 335.87 187.75 336.32 187.31C336.78 186.86 337.14 186.32 337.37 185.73C337.6 185.13 337.7 184.5 337.67 183.86L337.67 126.11C337.69 125.48 337.58 124.85 337.35 124.26C337.11 123.67 336.75 123.14 336.3 122.69C335.85 122.25 335.3 121.91 334.71 121.69C334.12 121.47 333.48 121.37 332.85 121.41C332.22 121.36 331.59 121.45 331 121.67C330.41 121.89 329.87 122.24 329.42 122.68C328.98 123.13 328.63 123.67 328.41 124.26C328.19 124.85 328.1 125.48 328.15 126.11L328.15 131.11C323.46 123.41 314.98 121.11 307.54 120.93C306.91 120.93 306.28 120.93 305.65 120.93L305.65 129.98C306.24 129.98 306.83 129.93 307.41 129.98C319.15 130.5 328.15 137.13 328.15 150.03L328.15 160.31C327.5 173.31 318.15 180.61 306.15 180.61L305.69 180.61L305.65 189.49ZM293.72 123.24C281.2 128.07 273.89 140.18 273.63 153.31C273.63 153.43 273.63 153.56 273.63 153.69L273.63 155.69C273.9 167.45 278.95 177.58 288.25 183.92C289.53 184.79 290.87 185.56 292.26 186.24C293.65 186.91 295.08 187.49 296.55 187.97C298.03 188.44 299.53 188.81 301.05 189.07C302.58 189.33 304.12 189.48 305.66 189.52L305.66 180.52C304.49 180.42 303.33 180.25 302.18 179.99C301.04 179.73 299.91 179.39 298.81 178.98C297.72 178.56 296.65 178.07 295.62 177.51C294.59 176.95 293.6 176.31 292.66 175.61C285.66 169.76 282.88 161.95 283.14 153.48C283.16 152.66 283.23 151.83 283.32 151.02C283.42 150.2 283.55 149.38 283.72 148.58C283.89 147.77 284.09 146.97 284.33 146.18C284.56 145.39 284.83 144.62 285.14 143.85C288.56 135.31 297.02 130.44 305.68 129.97L305.68 120.92C304.65 120.92 303.61 120.97 302.58 121.07C301.56 121.18 300.53 121.33 299.52 121.54C298.51 121.75 297.51 122.01 296.52 122.32C295.54 122.64 294.57 123 293.62 123.41L293.72 123.24Z" />
	<path id="r3" class="shp0" d="M366.89 125.85C366.89 119.59 357.63 120.11 357.63 125.85L357.63 183.63C357.61 184.26 357.73 184.88 357.97 185.46C358.21 186.04 358.57 186.57 359.02 187C359.48 187.43 360.02 187.77 360.61 187.98C361.2 188.19 361.83 188.27 362.46 188.22C363.07 188.23 363.68 188.13 364.25 187.9C364.82 187.68 365.34 187.34 365.77 186.91C366.21 186.49 366.56 185.98 366.79 185.41C367.03 184.85 367.15 184.24 367.15 183.63L367.15 154.15C367.15 140.98 372.89 130.28 386.32 130.28C389.32 130.28 391.32 128.72 391.32 125.85C391.32 122.98 389.32 121.28 386.32 121.28C378.89 121.28 371.06 123.63 366.89 132.37L366.89 125.85Z" />
	<path id="a4" class="shp0" d="M430 189.49L431.37 189.49C439.07 189.49 448.72 185.17 452.5 177.62L452.5 183.86C452.44 184.49 452.52 185.13 452.74 185.73C452.95 186.33 453.3 186.87 453.75 187.32C454.19 187.77 454.74 188.12 455.33 188.33C455.93 188.55 456.57 188.64 457.2 188.58C457.84 188.63 458.48 188.54 459.08 188.32C459.67 188.1 460.22 187.75 460.68 187.31C461.13 186.86 461.49 186.32 461.72 185.73C461.96 185.13 462.06 184.5 462.03 183.86L462.03 126.11C462.05 125.48 461.94 124.84 461.7 124.26C461.46 123.67 461.11 123.14 460.65 122.69C460.2 122.25 459.66 121.91 459.06 121.69C458.47 121.47 457.83 121.37 457.2 121.41C456.57 121.36 455.94 121.45 455.35 121.67C454.76 121.89 454.22 122.24 453.77 122.68C453.33 123.13 452.98 123.67 452.76 124.26C452.54 124.85 452.45 125.48 452.5 126.11L452.5 131.11C447.81 123.41 439.33 121.11 431.9 120.93C431.26 120.93 430.63 120.93 430 120.93L430 129.98C430.59 129.98 431.18 129.93 431.77 129.98C443.5 130.5 452.5 137.13 452.5 150.03L452.5 160.31C451.85 173.31 442.5 180.61 430.5 180.61L430.04 180.61L430 189.49ZM418 123.24C405.48 128.07 398.17 140.18 397.91 153.31L397.91 155.7C398.19 167.44 403.24 177.56 412.53 183.89C413.81 184.76 415.15 185.53 416.54 186.21C417.93 186.88 419.36 187.46 420.83 187.94C422.31 188.41 423.81 188.78 425.33 189.04C426.86 189.3 428.4 189.45 429.94 189.49L429.94 180.49C428.77 180.39 427.61 180.22 426.46 179.96C425.32 179.7 424.19 179.37 423.09 178.95C422 178.54 420.93 178.04 419.9 177.48C418.87 176.92 417.88 176.28 416.94 175.58C409.89 169.73 407.15 161.92 407.41 153.45C407.44 152.63 407.5 151.8 407.59 150.99C407.69 150.17 407.82 149.35 407.99 148.55C408.16 147.74 408.36 146.94 408.6 146.15C408.83 145.36 409.11 144.59 409.41 143.82C412.83 135.28 421.29 130.41 429.95 129.94L429.95 120.89C428.92 120.89 427.88 120.94 426.85 121.04C425.83 121.15 424.8 121.3 423.79 121.51C422.78 121.72 421.78 121.98 420.79 122.29C419.81 122.61 418.84 122.97 417.89 123.38L418 123.24Z" />
	<path id="n5" class="shp0" d="M536.71 184.15C536.71 187.02 538.71 188.74 541.54 188.74C544.37 188.74 546.23 187.02 546.23 184.15L546.23 149.59C546.23 130.81 531.76 120.37 516.63 120.37C506.45 120.37 496.41 124.37 491.71 133.94L491.71 125.85C491.71 119.59 482.32 119.72 482.32 125.72L482.32 184.15C482.32 187.02 484.32 188.74 487.32 188.74C490.32 188.74 492 187 492 184.15L492 153.89C492.02 150.67 492.66 147.48 493.9 144.5C495.13 141.53 496.94 138.82 499.21 136.54C501.49 134.25 504.18 132.43 507.15 131.18C510.12 129.93 513.31 129.27 516.53 129.24C519.2 129.23 521.84 129.76 524.3 130.78C526.77 131.8 529 133.3 530.88 135.2C532.76 137.09 534.25 139.34 535.25 141.81C536.26 144.28 536.76 146.92 536.74 149.59L536.71 184.15Z" />
	<path id="t6" class="shp0" d="M579.62 121.55L579.62 106.42C579.62 100.28 570.23 100.15 570.23 106.42L570.23 121.55L561.63 121.55C555.86 121.55 555.47 129.76 561.63 129.76L570.23 129.76L570.23 165C570.23 177.39 574.02 188.89 589.67 188.89C590.53 188.93 591.4 188.92 592.26 188.84C593.12 188.77 593.98 188.64 594.82 188.45C595.67 188.26 596.5 188.01 597.31 187.71C598.12 187.41 598.91 187.06 599.67 186.65C605.54 183.39 601.24 175.65 595.76 178.82C595.28 179.05 594.79 179.25 594.3 179.43C593.8 179.61 593.29 179.75 592.77 179.88C592.26 180 591.74 180.09 591.21 180.15C590.69 180.22 590.16 180.25 589.63 180.26C580.76 180.26 579.63 172.43 579.63 165L579.63 129.76L593.85 129.76C595 129.86 596.14 129.47 596.99 128.69C597.84 127.91 598.32 126.81 598.32 125.65C598.32 124.5 597.84 123.4 596.99 122.62C596.14 121.84 595 121.45 593.85 121.55L579.62 121.55Z" />
	<path id="i7" class="shp0" d="M614.32 184.54C614.32 190.17 623.84 190.3 623.84 184.54L623.84 125.72C623.84 120.11 614.32 120.24 614.32 125.85L614.32 184.54ZM624 105.89C624 99.89 614.22 99.89 614.22 105.89L614.22 111.76C614.22 117.76 624 117.63 624 111.76L624 105.89Z" />
	<path id="r8" class="shp0" d="M650.58 125.85C650.58 119.59 641.32 120.11 641.32 125.85L641.32 183.63C641.3 184.26 641.42 184.88 641.66 185.46C641.9 186.04 642.26 186.57 642.71 187C643.17 187.43 643.71 187.77 644.3 187.98C644.89 188.19 645.52 188.27 646.15 188.22C646.76 188.23 647.37 188.13 647.94 187.9C648.51 187.68 649.03 187.34 649.46 186.91C649.9 186.49 650.25 185.98 650.48 185.41C650.72 184.85 650.84 184.24 650.84 183.63L650.84 154.15C650.84 140.98 656.58 130.28 670.01 130.28C673.01 130.28 675.01 128.72 675.01 125.85C675.01 122.98 673.01 121.28 670.01 121.28C662.58 121.28 654.75 123.63 650.58 132.37L650.58 125.85Z" />
	<path id="Circle" fill-rule="evenodd" class="shp0" d="M50.67 163.62C56.23 169.19 59.36 176.74 59.36 184.61C59.36 192.48 56.23 200.03 50.67 205.6C45.1 211.16 37.55 214.29 29.68 214.29L29.68 209.93C36.4 209.93 42.84 207.26 47.58 202.51C52.33 197.77 55 191.33 55 184.61C55 177.89 52.33 171.45 47.58 166.71C42.84 161.96 36.4 159.29 29.68 159.29L29.68 154.93C37.55 154.93 45.1 158.06 50.67 163.62ZM8.69 163.62C3.13 169.19 0 176.74 0 184.61C0 192.48 3.13 200.03 8.69 205.6C14.26 211.16 21.81 214.29 29.68 214.29L29.68 209.93C22.96 209.93 16.52 207.26 11.78 202.51C7.03 197.77 4.36 191.33 4.36 184.61C4.36 177.89 7.03 171.45 11.78 166.71C16.52 161.96 22.96 159.29 29.68 159.29L29.68 154.93C21.81 154.93 14.26 158.06 8.69 163.62Z" />
	<path id="Lock bottom" fill-rule="evenodd" class="shp1" d="M86.27 144.87C101.74 144.46 135.27 144.07 149.63 143.7L149.63 143.7L154.55 143.57L154.55 201.57C154.55 213.33 146.75 223.92 137.03 225.16L91.4 230.94L40.28 237.44C27.71 239.03 17.21 229.09 17.21 215.28L17.21 211.54C19 212.37 20.86 213.02 22.78 213.48C24.7 213.94 26.66 214.21 28.63 214.28C30.6 214.35 32.57 214.23 34.51 213.91C36.46 213.59 38.37 213.08 40.21 212.38L40.21 213L40.32 213.11L91.38 208L137 203.42C137.01 203.41 137.02 203.41 137.03 203.4C137.04 203.39 137.05 203.38 137.05 203.37C137.06 203.36 137.07 203.35 137.07 203.34C137.07 203.32 137.08 203.31 137.08 203.3L137.08 166.47L86.45 169.21C86.46 161.07 86.4 152.96 86.27 144.87Z" />
	<path id="Lock top" fill-rule="evenodd" class="shp0" d="M89.76 0.24L91.4 0.44C117.67 4.23 138 31.39 138 60.93L138 76.21C147.28 77.35 154.59 87.21 154.59 98.53L154.59 131.21C153.14 131.13 151.68 131.08 150.22 131.05C148.77 131.02 147.31 131.02 145.85 131.05C144.4 131.07 142.94 131.12 141.49 131.2C140.03 131.28 138.58 131.38 137.13 131.51L137.13 98C137.13 97.99 137.12 97.98 137.12 97.97C137.12 97.96 137.11 97.95 137.11 97.94C137.1 97.93 137.1 97.92 137.09 97.91C137.08 97.91 137.08 97.9 137.07 97.89L91.38 96.45L89.76 96.45L89.76 73.45L91.38 73.55L127 75.54C127 70.4 127 65.25 127 60.08C127 37.51 111.39 17.08 91.46 14.48C90.91 14.41 90.37 14.36 89.82 14.32L89.76 0.24ZM17.17 157.68C17.18 157.67 17.2 157.67 17.21 157.66L17.21 157.68L17.17 157.68ZM17.21 157.66C18.99 156.84 20.84 156.2 22.74 155.74C24.66 155.28 26.62 155.01 28.59 154.94C30.56 154.87 32.53 154.99 34.47 155.31C36.42 155.63 38.33 156.14 40.17 156.84L40.17 94.97C40.17 94.96 40.18 94.94 40.19 94.93C40.2 94.92 40.2 94.91 40.21 94.9C40.22 94.89 40.23 94.88 40.24 94.87C40.26 94.86 40.27 94.86 40.28 94.85L89.76 96.37L89.76 73.37L52.56 71.2L52.56 54.32C52.56 30.32 69.54 12.75 89.76 14.32L89.76 0.28C62.47 -2.66 39.09 20.75 39.09 53.28L39.09 70.44C27.08 70.43 17.21 80.89 17.21 94.25L17.21 157.66Z" />
	<path id="Tick" fill-rule="evenodd" class="shp0" d="M12.13 177.76C16.27 185.47 18.21 189 22.37 196.69C32.69 184.12 48.87 173.69 52.16 170.55C52.16 170.55 25.53 185.16 22.46 186.55C18 183.05 16.9 181.52 12.13 177.76Z" />
</svg>
